tools/download-figma-icons/icons/solid/euro-symbol.svg

<svg width="24" height="24" viewBox="0 0 24 24" fill="none" xmlns="http://www.w3.org/2000/svg">
<path fill-rule="evenodd" clip-rule="evenodd" d="M12.75 9.74995C13.1625 9.74995 13.5 10.0874 13.5 10.4999C13.5 10.9124 13.1625 11.2499 12.75 11.2499H7.56C7.485 11.7449 7.485 12.2549 7.56 12.75H12.75C13.1625 12.75 13.5 13.0875 13.5 13.5C13.5 13.9124 13.1625 14.25 12.75 14.25H7.9875C8.235 14.7825 8.5575 15.285 8.985 15.72C10.32 17.115 12.2775 17.6025 14.07 16.995C14.4975 16.8525 14.91 16.635 15.3225 16.35C15.66 16.1099 16.125 16.1999 16.365 16.5375C16.605 16.875 16.5225 17.34 16.1775 17.58C15.66 17.9475 15.1125 18.2325 14.55 18.42C13.8825 18.645 13.1925 18.7575 12.51 18.7575C10.8075 18.7575 9.15 18.0599 7.905 16.7624C7.1925 16.0275 6.6975 15.165 6.3825 14.25H4.5C4.0875 14.25 3.75 13.9124 3.75 13.5C3.75 13.0875 4.0875 12.75 4.5 12.75H6.0525C5.9925 12.2549 5.9925 11.7449 6.0525 11.2499H4.5C4.0875 11.2499 3.75 10.9124 3.75 10.4999C3.75 10.0874 4.0875 9.74995 4.5 9.74995H6.3825C6.6975 8.83495 7.1925 7.97245 7.905 7.23745C10.11 4.94245 13.59 4.58995 16.1775 6.41245C16.5225 6.64495 16.605 7.11745 16.365 7.45495C16.125 7.79245 15.66 7.87495 15.3225 7.63495C13.3425 6.24745 10.6725 6.51745 8.985 8.27995C8.5575 8.71495 8.235 9.21745 7.9875 9.74995H12.75ZM12 0C5.37 0 0 5.37 0 12C0 18.63 5.37 24 12 24C18.63 24 24 18.63 24 12C24 5.37 18.63 0 12 0Z" fill="black"/>
</svg>

<svg width="24" height="24" viewBox="0 0 24 24" fill="none" xmlns="http://www.w3.org/2000/svg"><path fill-rule="evenodd" clip-rule="evenodd" d="M12.75 9.75c.412 0 .75.337.75.75 0 .412-.338.75-.75.75H7.56a5.029 5.029 0 0 0 0 1.5h5.19c.412 0 .75.338.75.75s-.338.75-.75.75H7.987c.248.533.57 1.035.998 1.47 1.335 1.395 3.293 1.882 5.085 1.275.428-.143.84-.36 1.252-.645a.748.748 0 0 1 1.043.188.742.742 0 0 1-.188 1.042 6.223 6.223 0 0 1-1.627.84 6.392 6.392 0 0 1-2.04.337c-1.703 0-3.36-.697-4.605-1.995a6.72 6.72 0 0 1-1.522-2.512H4.5a.752.752 0 0 1-.75-.75c0-.412.338-.75.75-.75h1.553a6.273 6.273 0 0 1 0-1.5H4.5a.752.752 0 0 1-.75-.75c0-.413.338-.75.75-.75h1.883a6.72 6.72 0 0 1 1.522-2.513c2.205-2.295 5.685-2.647 8.272-.825a.747.747 0 1 1-.855 1.223c-1.98-1.388-4.65-1.118-6.337.645-.428.435-.75.937-.997 1.47h4.762ZM12 0C5.37 0 0 5.37 0 12s5.37 12 12 12 12-5.37 12-12S18.63 0 12 0Z" fill="currentColor"/></svg>
